X: 1145
T: Barney Brallaghan.
B:O'Neill's Music of Ireland
N:O'Neill's - 1145
Z:Transcribed by Stephen Foy (shf@access.digex.net)
Z:abc 1.6
M:9/8
R:slipjig
K:D
F2 A ABA ABA | F2 A ABA d2 f | F2 A ABA ABA | B2 B e2 d cBA :|
|: (f2 a) (f2 a) (f2 d) | (f2 a) (f2 a) gfe | (f2 a) (f2 a) (f2 d) | g2 f e2 d cBA :|
f3 a3 d3 | g2 f e2 d cBA | f2 d e2 c d2 B | A2 B A2 G FED |
f3 a3 d3 | g2 f e2 d cBA | fga efg d2 B | AFA dAG FED ||


